src/actions/32/mail-mark-unread.svg

<svg xmlns="http://www.w3.org/2000/svg" viewBox="0 0 32 32">
  <defs id="defs3051">
    <style type="text/css" id="current-color-scheme">
      .ColorScheme-Text {
        color:#2e3440;
      }
      </style>
  </defs>
 <path 
     style="fill:currentColor;fill-opacity:1;stroke:none" 
     d="M 2 5 L 2 24.683594 L 2 27 L 30 27 L 30 24.683594 L 30 5 L 2 5 z M 3 6 L 3.0234375 6 L 12.070312 14.841797 L 3 23.707031 L 3 6 z M 4.453125 6 L 27.546875 6 L 16 17.285156 L 4.453125 6 z M 28.976562 6 L 29 6 L 29 23.707031 L 19.929688 14.841797 L 28.976562 6 z M 12.785156 15.541016 L 16 18.683594 L 19.214844 15.541016 L 28.570312 24.683594 L 29 25.091797 L 29 26 L 3 26 L 3 25.111328 L 3.4296875 24.683594 L 12.785156 15.541016 z "
     class="ColorScheme-Text"
     />
</svg>

<svg viewBox="0 0 32 32" xmlns="http://www.w3.org/2000/svg">
 <defs>
  <style type="text/css">.ColorScheme-Text {
        color:#2e3440;
      }</style>
 </defs>
 <path class="ColorScheme-Text" d="m2 5v19.684 2.3164h28v-2.3164-19.684h-28zm1 1h0.023438l9.0469 8.8418-9.0703 8.8652v-17.707zm1.4531 0h23.094l-11.547 11.285-11.547-11.285zm24.523 0h0.023438v17.707l-9.0703-8.8652 9.0469-8.8418zm-16.191 9.541 3.2148 3.1426 3.2148-3.1426 9.3555 9.1426 0.42969 0.4082v0.9082h-26v-0.88867l0.42969-0.42773 9.3555-9.1426z" fill="currentColor"/>
</svg>
